BlueBlazor.Docs/wwwroot/images/blue.svg

<svg fill-rule="evenodd" stroke-linejoin="round" stroke-miterlimit="2" clip-rule="evenodd" viewBox="0 0 517 615" xmlns="http://www.w3.org/2000/svg"><path fill="url(#_Linear1)" d="M.438 0H.124a.064.064 0 01-.045-.019.064.064 0 01-.019-.045v-.643c0-.035.029-.064.064-.064h.412c.035 0 .064.029.064.064v.063a.072.072 0 01-.008.032L.539-.52A.27.27 0 01.438 0zm.023-.383l-.13.229h.107a.116.116 0 00.023-.229zM.285-.385H.214v.125l.071-.125zM.224-.617a.01.01 0 00-.007.003.01.01 0 00-.003.007v.067h.159l.044-.077H.224z" transform="translate(-47.82 614.4) scale(796.887)"/><defs><linearGradient id="_Linear1" x1="0" x2="1" y1="0" y2="0" gradientTransform="rotate(90 .552 -.219) scale(.771)" gradientUnits="userSpaceOnUse"><stop offset="0" stop-color="#6da2f8"/><stop offset="1" stop-color="#0b64f4"/></linearGradient></defs></svg>

<svg width="100%" height="100%" viewBox="0 0 400 400" version="1.1" xmlns="http://www.w3.org/2000/svg" xmlns:xlink="http://www.w3.org/1999/xlink" xml:space="preserve">
    <g transform="matrix(1,0,0,1,-1613.42,-4870.12)">
        <g id="Blue" transform="matrix(0.991867,0,0,0.991867,1122.55,4870.12)">
            <rect x="494.892" y="0" width="403.28" height="403.28" style="fill:none;"/>
            <clipPath id="_clip1">
                <rect x="494.892" y="0" width="403.28" height="403.28"/>
            </clipPath>
            <g clip-path="url(#_clip1)">
                <g transform="matrix(1.00032,0,0,1.00032,494.827,-0.065533)">
                    <path d="M403.23,88.693C403.23,39.742 363.488,0 314.537,0L88.773,0C39.822,0 0.08,39.742 0.08,88.693L0.08,314.457C0.08,363.408 39.822,403.15 88.773,403.15L314.537,403.15C363.488,403.15 403.23,363.408 403.23,314.457L403.23,88.693Z" style="fill:rgb(50,0,229);"/>
                    <clipPath id="_clip2">
                        <path d="M403.23,88.693C403.23,39.742 363.488,0 314.537,0L88.773,0C39.822,0 0.08,39.742 0.08,88.693L0.08,314.457C0.08,363.408 39.822,403.15 88.773,403.15L314.537,403.15C363.488,403.15 403.23,363.408 403.23,314.457L403.23,88.693Z"/>
                    </clipPath>
                    <g clip-path="url(#_clip2)">
                        <g transform="matrix(6.17145e-17,1.00787,-1.00787,6.17145e-17,5311.67,-1387.53)">
                            <rect x="1376.72" y="4870.06" width="400.015" height="400.065" style="fill:url(#_Linear3);"/>
                        </g>
                    </g>
                </g>
                <g transform="matrix(313.837,0,0,313.837,583.076,322.624)">
                    <path d="M0.438,0L0.124,0C0.107,-0 0.091,-0.007 0.079,-0.019C0.067,-0.031 0.06,-0.047 0.06,-0.064L0.06,-0.707C0.06,-0.742 0.089,-0.771 0.124,-0.771L0.536,-0.771C0.571,-0.771 0.6,-0.742 0.6,-0.707L0.6,-0.644C0.6,-0.633 0.597,-0.622 0.592,-0.612C0.575,-0.583 0.539,-0.52 0.539,-0.52C0.639,-0.48 0.708,-0.384 0.708,-0.27C0.708,-0.121 0.587,0 0.438,0Z" style="fill:white;"/>
                </g>
                <g transform="matrix(313.837,0,0,313.837,583.076,322.624)">
                    <path d="M0.461,-0.383L0.331,-0.154L0.438,-0.154C0.502,-0.154 0.554,-0.206 0.554,-0.27C0.554,-0.326 0.514,-0.372 0.461,-0.383Z" style="fill:rgb(133,118,222);"/>
                </g>
                <g transform="matrix(313.837,0,0,313.837,583.076,322.624)">
                    <path d="M0.285,-0.385L0.214,-0.385L0.214,-0.26L0.285,-0.385Z" style="fill:rgb(133,118,222);"/>
                </g>
                <g transform="matrix(313.837,0,0,313.837,583.076,322.624)">
                    <path d="M0.224,-0.617C0.221,-0.617 0.219,-0.616 0.217,-0.614C0.215,-0.612 0.214,-0.61 0.214,-0.607L0.214,-0.54L0.373,-0.54L0.417,-0.617L0.224,-0.617Z" style="fill:rgb(133,118,222);"/>
                </g>
            </g>
        </g>
    </g>
    <defs>
        <linearGradient id="_Linear3" x1="0" y1="0" x2="1" y2="0" gradientUnits="userSpaceOnUse" gradientTransform="matrix(400.015,0,0,400.065,1376.72,5070.09)"><stop offset="0" style="stop-color:white;stop-opacity:0.1"/><stop offset="1" style="stop-color:black;stop-opacity:0.21"/></linearGradient>
    </defs>
</svg>
